X: 12146
T: Ewe Wi' The Crookit Horn, The
R: strathspey
M: 4/4
K: Gmixolydian
"G"D<GG>A "F"F>GA<F|"G"D<G GA/B/ (3cBA B<G|"F"A>Bc>B "Dm"A>GF<D|"G"D<GG>_B "F"A<F "G"G2:|
K: Gdor
"Gm"G<gg>a "F"f>ga<f|"Gm"d<gg>a "F"f<a "Gm"g2|d<gg>a "Bb"(3bag (3agf|"Gm"d<gb>g "D"a<^f "Gm"g2|
"Dm"f>g{fg}f>d "F"c/B/A/G/ F>A|"Gm"G/A/B/c/ d>B c>Ad>e|"Dm"f<ad<f "F"c<fA<F|"Gm"G/A/B/c/ d>B c>A G2||

